**kern	**dynam	**kern	**dynam	**kern	**dynam	**kern	**dynam	**mxhm
*part4	*part4	*part3	*part3	*part2	*part2	*part1	*part1	*part1
*staff4	*	*staff3	*	*staff2	*	*staff1	*	*
*I"Cello	*	*I"Viola	*	*I"2nd Violin	*	*I"1st Violin	*	*
*clefF4	*	*clefC3	*	*clefG2	*	*clefG2	*	*
*k[f#c#g#d#a#]	*	*k[f#c#g#d#a#]	*	*k[f#c#g#d#a#]	*	*k[f#c#g#d#a#]	*	*
*g#:	*	*g#:	*	*g#:	*	*g#:	*	*
*M2/2	*	*M2/2	*	*M2/2	*	*M2/2	*	*
*met(c|)	*	*met(c|)	*	*met(c|)	*	*met(c|)	*	*
!	!	!	!	!	!	!LO:TX:a:B:t=No. 1  Adagio ma non troppo e molto espressivo	!	!
4r	.	4r	.	4r	.	(4d#	<	.c#.i64
=1	=1	=1	=1	=1	=1	=1	=1	=1
1r	.	1r	.	1r	.	2f##X	.	V6
.	.	.	.	.	.	2g#)	[[	i
=2	=2	=2	=2	=2	=2	=2	=2	=2
1r	.	1r	.	1r	.	2.e	sf >	iv6
.	.	.	.	.	.	(4d#	p ]]	i64
=3	=3	=3	=3	=3	=3	=3	=3	=3
1r	.	1r	.	1r	.	4c#	.	iv
.	.	.	.	.	.	4e	.	.
.	.	.	.	.	.	4d#	.	V7
.	.	.	.	.	.	4c#	.	.
=4	=4	=4	=4	=4	=4	=4	=4	=4
1r	.	1r	.	2r	.	4B	.	i6
.	.	.	.	.	.	4c#)	.	.
.	.	.	.	4r	.	[2d#	.	i
.	.	.	.	(4G#	<	.	.	.
=5	=5	=5	=5	=5	=5	=5	=5	=5
1r	.	1r	.	2B#X	.	(4d#]	.	#viio/iv
.	.	.	.	.	.	2f#	.	iv(4)
.	.	.	.	2c#)	[[	.	.	.
.	.	.	.	.	.	[4e)	.	iv
=6	=6	=6	=6	=6	=6	=6	=6	=6
!	!	!	!LO:DY:a	!	!	!	!	!
!	!	!	!LO:DY:a	!	!	!	!	!
1r	.	1r	sf p	2.A	>	(4e]	.	.bII
.	.	.	.	.	.	4B#X	.	.bII(#2)
.	.	.	.	.	.	4c#	.	.bII
.	.	.	.	(4G#	]]	4e	.	iv64
=7	=7	=7	=7	=7	=7	=7	=7	=7
1r	.	1r	.	4F#	.	4d	.	.Ger6
.	.	.	.	4A	.	2B#X	.	.
.	.	.	.	4G#	.	.	.	.
.	.	.	.	4F#	.	4b#X)	.	V2/iv
=8	=8	=8	=8	=8	=8	=8	=8	=8
1r	.	2r	.	4E	.	(2cc#	.	iv6
.	.	.	.	4F#	.	.	.	.
.	.	4r	.	4G#)	.	4b	.	V(64)
.	.	(4D#	<	(4F##X	.	[4a#)	.	V
=9	=9	=9	=9	=9	=9	=9	=9	=9
1r	.	2F##X	.	4A#	.	(4a#]	.	V6
.	.	.	.	2D#)	.	4cc#	.	V7
.	.	2G#)	[[	.	.	4b)	.	i64
.	.	.	.	(4d#	.	[4b	.	i
=10	=10	=10	=10	=10	=10	=10	=10	=10
!	!	!	!	!LO:TX:b:i:t=cresc.	!	!LO:TX:b:i:t=cresc.	!	!
1r	.	2.E	sf >	2f##X	.	(4b]	.	#viio2(4)
.	.	.	.	.	.	2a#	.	iio43
.	.	.	.	4g#	.	.	.	.
.	.	(4D#	]]	4f#	.	[4b)	.	III6
=11	=11	=11	=11	=11	=11	=11	=11	=11
!	!	!LO:TX:b:i:t=cresc.	!	!	!	!	!	!
1r	.	4C#	.	4e#X	.	2.b]	.	III6
.	.	4E	.	4g#	.	.	.	.
.	.	4D#	.	4f#)	.	.	.	.
.	.	4C#	.	(4E	.	[4a	.	.bII6
=12	=12	=12	=12	=12	=12	=12	=12	=12
!	!	!LO:TX:b:i:t=dim.	!	!LO:TX:b:i:t=dim.	!	!LO:TX:b:i:t=dim.	!	!
2r	.	4BB	.	4D#	.	(4a]	.	V7/vi
.	.	4C#)	.	4E	.	4g#	.	iv
4r	.	[2D#	p	4A#	.	4f##X	p	V
(4GG#	<	.	.	4B#X)	p	[4f#)	.	V7/iv
=13	=13	=13	=13	=13	=13	=13	=13	=13
2C	.	(4D#]	.	(4A	.	(4f#]	.	viio2/VI
.	.	4d#	.	4F#	.	4A	.	.
2C#X)	[[	4e#X	.	4E#X	.	4G#	.	IV
.	.	[4c#)	.	4G#)	.	[4e#X)	.	.
=14	=14	=14	=14	=14	=14	=14	=14	=14
2.AA	sf >	4c#]	.	(4A	.	(4e#]	.	.bII+
.	.	(4D	.	2F#	.	2f#	.	vii6
.	.	4C#	.	.	.	.	.	.
(4GG#	p ]]	4BB	.	4E#X)	.	4g#	.	#viio6/vii
=15	=15	=15	=15	=15	=15	=15	=15	=15
4FF#	.	4AA	.	4F#	.	4a	.	vii
4AA	.	4C	.	4D#	.	4f#	.	viio43/VI
4GG#	.	4BB	.	4E	.	4g#	.	VI
4FF#	.	4AA)	.	4F#	.	4a)	.	vii
=16	=16	=16	=16	=16	=16	=16	=16	=16
4EE	.	(4GG#	.	2.G#	.	(2.b	.	i[VI6
4FF#)	.	4AA	.	.	.	.	.	.
[2GG#	.	4BB	.	.	.	.	.	.
.	.	[4C#X)	.	(4F#	.	[4a)	.	vii64
=17	=17	=17	=17	=17	=17	=17	=17	=17
(4GG#]	.	(4C#]	.	2E#X	.	(4a]	.	.bII+6]
4BB	.	4D	.	.	.	4g#	.	#viio43/vii
4AA	.	4C#	.	4F#	.	4a	.	vii6
4GG#)	.	4BB)	.	4G#)	.	4b)	.	i
=18	=18	=18	=18	=18	=18	=18	=18	=18
!LO:TX:b:i:t=cresc.	!	!LO:TX:b:i:t=cresc.	!	!LO:TX:b:i:t=cresc.	!	!LO:TX:b:i:t=cresc.	!	!
(4FF#	.	(4AA	.	(4A	.	2.cc#	.	i6
4GG#	.	4BB	.	4e#X	.	.	.	.
4AA	.	4C#)	.	4f#	.	.	.	.
[4AA#X)	.	[4c#	.	4f##X)	.	(4cc#	.	#io6
=19	=19	=19	=19	=19	=19	=19	=19	=19
(4AA#]	.	(4c#]	.	(4f##X	.	4ee	.	#io65
4BB	.	4B	.	4g#	.	4dd#	.	ii6
4C#	.	4A#X	.	4e	.	4cc#	.	#viio6/iv
4C##X)	.	[4G#)	.	4e#X)	.	[4b)	.	#vo7
=20	=20	=20	=20	=20	=20	=20	=20	=20
(4D#	p	(2G#]	p	(4d#	p	(2b]	p	.Ger6
4E	.	.	.	4c##X	.	.	.	.
4D#	.	2F##X)	.	4d#	.	4a#)	.	V
[4C#X)	.	.	.	4a#)	.	(4dd#	<	V2
=21	=21	=21	=21	=21	=21	=21	=21	=21
(4C#]	.	4r	.	1r	.	2ff##X	.	I6(7)
4BB#X)	.	(2D#	.	.	.	.	.	.
4r	.	.	.	.	.	2gg#)	[[	I6
(4GGG#	<	4BB#X)	.	.	.	.	.	.
=22	=22	=22	=22	=22	=22	=22	=22	=22
!	!	!	!	!	!	!	!LO:DY:a	!
2BBB#X	.	(4GG#	.	4r	.	(4ff#	p	V65/iv
.	.	4G#	.	(2g#	p	4ee)	.	iv(7)
2CC#)	[[	4E	.	.	.	4r	.	.
.	.	4E#X)	.	4e#X	<	(4cc#	.	V/vii
=23	=23	=23	=23	=23	=23	=23	=23	=23
(4BBB	.	4r	.	4c#)	.	2ee#X	.	V2/vii
4AAA#)	.	(2C#	.	(4c#	.	.	.	.
4r	.	.	.	4A	.	2ff#)	.	V/III
(4FF#	.	4AA#	.	4A#X)	[[	.	.	.
=24	=24	=24	=24	=24	=24	=24	=24	=24
2AA	.	4F#)	p	4r	.	(4ee	p	vo64(5)
!	!	!LO:TX:b:i:t=cresc.	!	!	!	!	!	!
.	.	(4d#	.	(4f#	p	4dd#)	.	vo64
!	!	!	!	!LO:TX:b:i:t=cresc.	!	!	!	!
4BB)	.	4c#	.	4e	.	4r	.	III.I(42)
*clefC4	*	*	*	*	*	*	*	*
!LO:TX:b:i:t=cresc.	!	!	!	!	!	!	!	!
(4F#	.	4B)	.	4d#	.	4r	.	I64
=25	=25	=25	=25	=25	=25	=25	=25	=25
2A#X	.	4r	.	4c#	.	4r	.	V65
.	.	(4f#	.	4d#	.	4r	.	iii64
!	!	!	!	!	!	!LO:TX:b:i:t=cresc.	!	!
[2B)	.	4e	.	4c#	.	4r	.	I[I(42)
.	.	4d#	.	4B	.	(4ff#	.	I
=26	=26	=26	=26	=26	=26	=26	=26	=26
2.B]	.	4c#	.	4e	.	2aa#	.	I(7)
.	.	4F#	.	4d#	.	.	.	.
.	.	4E	.	4G	.	4.bb	.	iv]
*clefF4	*	*	*	*	*	*	*	*
4BBB	.	[4D#)	.	4F#)	.	.	.	.
.	.	.	.	.	.	8f#)	.	I
=27	=27	=27	=27	=27	=27	=27	=27	=27
!	!	!	!	!	!LO:DY:a	!	!	!
(2DD#	sf >	(4D#]	sf >	2.B	sf sf >	(2f##X	>	I+6
.	.	2BB	.	.	.	.	.	.
4EE	.	.	.	.	.	4g#	.	IV
!	!LO:DY:a	!	!	!	!	!	!	!
4DD	p p ]]	[4GG#)	]]	(4B#X	p ]]	4f#	p ]]	.Fr6/V
=28	=28	=28	=28	=28	=28	=28	=28	=28
4CC#	.	4GG#]	.	4c#	.	4e#X	.	V/V
4EE#X	.	(2C#	.	4B	.	4g#	.	V65/V
4FF#	.	.	.	4A#	.	4f#	.	V
4AA#	.	4c#	.	[4F#	.	4e	.	V65
=29	=29	=29	=29	=29	=29	=29	=29	=29
4BB	.	4B)	.	4F#]	.	4d#	.	I
4DD#	.	2BB	.	4A	.	4f#	.	V65/IV
4EE	.	.	.	4G#	.	4e	.	IV
4GG#	.	4BB	.	4B	.	4d#	.	vi
=30	=30	=30	=30	=30	=30	=30	=30	=30
4AA#	.	(4C#	.	4E	.	4c#	.	viio
4CC#	.	2AA#	.	4G#	.	4e	.	vii%65
4DD#	.	.	.	4F##X	.	4d#	.	V/vi
4FF##X	.	4A#)	.	[4D#)	.	4c#)	.	V65/vi
=31	=31	=31	=31	=31	=31	=31	=31	=31
4GG#)	.	(4G#	.	4D#]	.	(4B	.	vi\\
2r	.	4d#	.	(4f#	.	4b	.	I6
.	.	2c#)	.	4a#	.	4cc#	.	V64
*clefC4	*	*	*	*	*	*	*	*
(4B	.	.	.	4g#	.	4ee#X	.	V2/V
=32	=32	=32	=32	=32	=32	=32	=32	=32
4A#	.	(4c#	.	4f#)	.	4ff#	.	V6
4d#	.	4f#	.	2r	.	4a#	.	iii
4B	.	4d#	.	.	.	4b	.	I
4A#	.	4c#)	.	(4f#	.	4dd#)	.	V6(+6)
=33	=33	=33	=33	=33	=33	=33	=33	=33
4G#	.	4B	.	4e#X	.	(4ee#X	.	viio7/V
4B	.	4r	.	2c##X	.	4g#	.	viio2/iii
4A#	.	2r	.	.	.	4a#	.	.
4G#)	.	.	.	4e#)	.	4cc##X)	.	V2/iii
=34	=34	=34	=34	=34	=34	=34	=34	=34
(4F#	.	2r	.	(4A#	.	2.dd#	.	iii.i64
4G#	.	.	.	4B	.	.	.	.
!LO:TX:b:i:t=cresc.	!	!LO:TX:b:i:t=cresc.	!	!LO:TX:b:i:t=cresc.	!	!	!	!
4A#)	.	4r	.	4f#)	.	.	.	.
!	!	!	!	!	!	!LO:TX:b:i:t=cresc.	!	!
[4AA#	.	(4A#	.	[4e#X	.	(4cc##X	.	V
=35	=35	=35	=35	=35	=35	=35	=35	=35
(2AA#]	.	2c##X	.	(4e#]	.	(4cc##X)	.	.
.	.	.	.	4E#X	.	2gg#	.	VI(6)
2BB)	.	2d#)	.	4D#	.	.	.	.
.	.	.	.	4d#)	.	[4ff#)	.	VI
=36	=36	=36	=36	=36	=36	=36	=36	=36
!	!	!	!LO:DY:a	!	!	!	!	!
[1C#	>]	2.B	sfz	(4G#	.	(4ff#]	.	VII.V[V7(4)
.	.	.	.	2d	.	4ee#X	.	V7(+b9)
.	.	.	.	.	.	4gg#	.	.
.	.	(4A#	>]	[4c#)	>]	4ff#	>]	I6
=37	=37	=37	=37	=37	=37	=37	=37	=37
1C#_	sfz	4G#	sfz	(4c#]	sfz	4ee#X	sfz	V
.	.	4B	.	4e#X	.	4gg#	.	V7
.	.	4A#	.	4f#	.	4ff#	.	I6
.	.	4G#	.	4B) 4g#	.	4ee#)	.	V43
=38	=38	=38	=38	=38	=38	=38	=38	=38
!	!	!	!	!	!	!	!LO:DY:a	!
2.C#]	p	4A#	p	(4c#	p	(4ff#	p	I6
.	.	4c#	.	4f#	.	4aa#	.	I64
.	.	4B	.	4e#X	.	4gg#	.	V2]
*clefF4	*	*	*	*	*	*	*	*
(4CC#	.	4A#)	.	4f#	.	4ff#	.	I64
=39	=39	=39	=39	=39	=39	=39	=39	=39
4GG#	.	[1C#	.	4b	.	2ee#X	.	V43
4BB	.	.	.	4g#	.	.	.	.
4AA#	.	.	.	4f#	.	4ff#	.	I6
4GG#	.	.	.	4e#X)	.	4gg#)	.	V7
=40	=40	=40	=40	=40	=40	=40	=40	=40
4AA#	.	(4C#]	.	(4cc#	.	(2ff#	.	I6
4C#	.	4F#	.	4a#	.	.	.	.
4BB	.	4E#X	.	4g#	.	4gg#	.	V2
4AA#)	.	4F#)	.	4f#)	.	[4aa#)	.	I6
=41	=41	=41	=41	=41	=41	=41	=41	=41
1AA#	.	(4E#X	.	(4c##X	.	(4aa#]	.	iii.V
.	.	4G#	.	4e#X	.	(2.a#)	.	V
.	.	4F#	.	4d#	.	.	.	.
.	.	4E#	.	4d	.	.	.	.
=42	=42	=42	=42	=42	=42	=42	=42	=42
1DD#	.	4D#	.	4f#	.	[1a#)	.	i
.	.	4F#	.	4a#	.	.	.	.
.	.	4E#X	.	4g#	.	.	.	.
.	.	4D#)	.	4f#)	.	.	.	.
=43	=43	=43	=43	=43	=43	=43	=43	=43
1BB-X	.	(4E#X	.	(4c##X	.	2.a#]	.	V
.	.	4G#	.	4e#X	.	.	.	.
.	.	4F#	.	4d#	.	.	.	.
.	.	4FX	.	4d-X	.	(4b-X	.	.biii.i
=44	=44	=44	=44	=44	=44	=44	=44	=44
1FFX	.	4FX	.	4c	.	4a	.	V7
.	.	4D#	.	4A	.	4cc	.	.
.	.	4D-X	.	4B-X	.	4b-X	.	.
.	.	4C	.	4c	.	4a	.	.
=45||	=45||	=45||	=45||	=45||	=45||	=45||	=45||	=45||
*k[b-e-a-d-g-]	*	*k[b-e-a-d-g-]	*	*k[b-e-a-d-g-]	*	*k[b-e-a-d-g-]	*	*
*b-:	*	*b-:	*	*b-:	*	*b-:	*	*
2BB-	.	4D-X	.	4F	.	4b-X	.	i
.	.	4FX	.	4B-X	.	4dd-	.	.
2BBB-	.	4E-)	.	4c)	.	4cc	.	.
.	.	(4d-	.	(4f	.	4b-)	.	.
=46	=46	=46	=46	=46	=46	=46	=46	=46
1r	.	2c	.	2a	<	4r	.	V64
.	.	.	.	.	.	(4ff	.	.
.	.	4B-)	.	2b-)	[[	4ee-	.	I(4)
.	.	(4BB-	.	.	.	4dd)	.	I
=47	=47	=47	=47	=47	=47	=47	=47	=47
4r	.	2D	<	4B- 4g	.	1r	.	IV6/I
(4BBB-	.	.	.	2r	.	.	.	.
4AAA-	.	2E-)	[[	.	.	.	.	.
4GGG)	.	.	.	(4e-	.	.	.	.
=48	=48	=48	=48	=48	=48	=48	=48	=48
4r	.	4C	.	2g	.	4r	.	.bbII.iii
*clefC4	*	*	*	*	*	*	*	*
(4c	.	2r	.	.	.	(4ee-	.	.
4B-	.	.	.	2a-)	.	4dd-	.	I(4)
[4A-)	.	(4AA-	.	.	.	4cc)	.	I
=49	=49	=49	=49	=49	=49	=49	=49	=49
4A-]	.	2C	<	(4f	.	4r	.	.bbV.iii64
2r	.	.	.	4a-	.	(4ff	.	.
.	.	2D-)	[[	4g-X	.	4ee-	.	I(42)
*clefF4	*	*	*	*	*	*	*	*
(4AAA-	.	.	.	4f)	.	4dd-)	.	I64
=50	=50	=50	=50	=50	=50	=50	=50	=50
!LO:TX:b:i:t=cresc.	!	!LO:TX:a:i:t=cresc.	!	!LO:TX:b:i:t=cresc.	!	!LO:TX:b:i:t=cresc.	!	!
2CC	.	(4C	.	(4e-	.	4ee-	.	V6
.	.	2AA-)	.	4.A-	.	(4ee-	.	.
4DD-)	.	.	.	.	.	4f	.	I
.	.	.	.	8G-)	.	.	.	.
(4BBB-	.	(8D-L	.	[4F	.	(4ff)	.	.bVI.V
.	.	[8DJ)	.	.	.	.	.	.
=51	=51	=51	=51	=51	=51	=51	=51	=51
2DD	.	(4D]	.	(4F]	.	4ff)	.	V6
.	.	2BB-)	.	4.B-	.	(4ff	.	.
4EE-)	.	.	.	.	.	4g	.	I
.	.	.	.	8A-)	.	.	.	.
(4CC	.	(8E-L	.	[4G	.	(4gg)	.	.bvii.V
.	.	[8EJ)	.	.	.	.	.	.
=52	=52	=52	=52	=52	=52	=52	=52	=52
2EE	.	(4E]	.	(4G]	.	4gg)	.	V6
.	.	2C)	.	4.c	.	(4gg	.	.
4FF)	.	.	.	.	.	4a-	.	i
.	.	.	.	8B-)	.	.	.	.
(4CC#X	.	(8EL	.	[4A-	.	(4aa-)	.	VII.V
.	.	[8FJ)	.	.	.	.	.	.
=53	=53	=53	=53	=53	=53	=53	=53	=53
2EE#X	.	(4F]	.	(4A-]	.	4aa-)	.	V6
.	.	2C#X)	.	4.d-	.	(4aa-	.	.
2FF#)	.	.	.	.	.	4b)	.	I(4)
.	.	.	.	8B)	.	.	.	.
.	.	(8E#XL	.	(4A#X	.	8r	.	.
.	.	8F#J)	.	.	.	8cc#X	.	I
=54||	=54||	=54||	=54||	=54||	=54||	=54||	=54||	=54||
*k[f#c#g#d#a#e#]	*	*k[f#c#g#d#a#e#]	*	*k[f#c#g#d#a#e#]	*	*k[f#c#g#d#a#e#]	*	*
*d#:	*	*d#:	*	*d#:	*	*d#:	*	*
!	!	!	!LO:DY:a	!	!	!	!	!
2.DD#	f >	(8F#L	f f >	4A#X)	.	(4ee#	f >	vi(2)
.	.	8G#)	.	.	.	.	.	.
.	.	(8G#	.	4r	.	4ff#	.	.
.	.	8A#J)	.	.	.	.	.	.
.	.	4A#	.	(8f#L	.	4.dd#)	.	V/ii
.	.	.	.	8f##X)	.	.	.	.
(4CC#	p ]]	(8AA#L	.	(8f##	.	.	.	.
.	.	8F##XJ)	p ]]	8a#J)	.	[8dd#	] p	V2/ii
=55	=55	=55	=55	=55	=55	=55	=55	=55
4BBB	.	(8G#L	.	(8d#XL	p	8dd#L]	.	ii6
.	.	8B	.	8G#	.	(8dd#	.	.
4DD#	.	8A#	.	8A#	.	8cc#	.	ii64
.	.	8G#J	.	8BJ	.	8bJ	.	.
2CC#)	.	8F#L	.	8c#L	.	8a#L	.	V(64)
.	.	8G#J	.	8B	.	8bJ	.	.
.	.	[4A#)	.	8F#	.	[4cc#)	.	.
.	.	.	.	[8c#J)	.	.	.	.
=56	=56	=56	=56	=56	=56	=56	=56	=56
(4AAA#	.	8A#L]	.	(8c#L]	.	8cc#L]	.	I6
.	.	(8A#	.	8d#J	.	(8cc#	.	.
4CC#	.	8G#	.	[4e)	.	8b	.	V43/IV
.	.	8F#J	.	.	.	8a#J	.	.
2BBB)	.	8EL	.	8eL]	.	8g#L	.	.bVII64
.	.	8F#J	.	(8e	.	8a#J	.	.
.	.	[4G#)	.	8d#	.	[4b)	.	ii6
.	.	.	.	8c#J	.	.	.	.
=57	=57	=57	=57	=57	=57	=57	=57	=57
!LO:TX:b:i:t=cresc.	!	!LO:TX:b:i:t=cresc.	!	!LO:TX:b:i:t=cresc.	!	!LO:TX:b:i:t=cresc.	!	!
(4GGG#	.	8G#L]	.	8BL	.	8bL]	.	ii
.	.	(8G#	.	8c#J	.	(8b	.	.
4BBB	.	8G#	.	4d#)	.	8a#	.	ii6
.	.	8EJ	.	.	.	[8g#J)	.	.
4AAA#	.	8A#L)	.	(8c#L	.	8g#L]	.	iii
.	.	(8A#	.	8d#J	.	(8cc#	.	.
4CC#)	.	8G#	.	4e)	.	8b	.	V43/IV
.	.	8F#J	.	.	.	[8a#J)	.	.
=58	=58	=58	=58	=58	=58	=58	=58	=58
(4BBB	.	8BL)	.	(8d#L	.	8a#L]	.	IV
.	.	(8B	.	8eJ	.	(8dd#	.	.
4DD#	.	8A#	.	4f#)	.	8cc#	.	ii43
.	.	8G#J	.	.	.	[8bJ)	.	.
4CC#	.	8c#L)	.	(8eL	.	8bL]	.	v
.	.	(8c#	.	8f#J	.	(8ee	.	.
4EE)	.	8B	.	[4g#)	.	8dd#	.	v6
.	.	[8A#J)	.	.	.	[8cc#J)	.	.
=59	=59	=59	=59	=59	=59	=59	=59	=59
!LO:TX:a:i:t=piu cresc.	!	!LO:TX:b:i:t=piu cresc.	!	!LO:TX:b:i:t=piu cresc.	!	!LO:TX:b:i:t=piu cresc.	!	!
(4DD#	.	8A#L]	.	8g#L]	.	8cc#L]	.	vi
.	.	(8d#	.	(8f#	.	(8ff#	.	.
4FF#	.	8c#	.	8g#	.	8ee	.	V43/bVII
.	.	[8BJ)	.	[8aJ)	.	[8dd#J)	.	.
4EE	.	8BL]	.	8aL]	.	8dd#L]	.	.bVII
.	.	(8B	.	(8g#	.	(8gg#	.	.
4GG#)	.	8A	.	8a	.	8ff#	.	.bVII6
.	.	8G#J	.	[8bJ)	.	[8eeJ)	.	.
=60||	=60||	=60||	=60||	=60||	=60||	=60||	=60||	=60||
*k[f#c#g#d#]	*	*k[f#c#g#d#]	*	*k[f#c#g#d#]	*	*k[f#c#g#d#]	*	*
*c#:	*	*c#:	*	*c#:	*	*c#:	*	*
(4FF#	.	8DL	.	8bL]	.	8eeL]	.	VI.ii
.	.	8C#	.	(8a	.	(8aa	.	.
4AA	.	8C	.	8e	.	8gg#	.	viio43
.	.	8AJ	.	8d#J	.	[8ff#J)	.	.
4GG#	.	8BL)	.	8dL)	.	8ff#L]	.	V65/VI
.	.	(8BB	.	(8g#	.	(8bb	.	.
[4BB)	.	8C#X	.	8f#	.	8aa	.	viio43/ii
.	.	[8D#XJ)	.	[8e#XJ)	.	[8gg#J)	.	.
=61	=61	=61	=61	=61	=61	=61	=61	=61
!LO:TX:b:i:t=r	!	!LO:TX:b:i:t=r	!	!LO:TX:b:i:t=r	!	!LO:TX:b:i:t=r	!	!
8BBL]	fz	8D#L]	fz	8e#L]	fz	(8gg#L]	fz	.
(8AA	.	(8C#	.	(8f#	.	8ccc#)	.	ii6
8BB	.	8D#	.	8g#	.	8r	.	iii6
8C#J	.	8EJ	.	8aJ)	.	[8aaJ	.	IV6
!LO:TX:b:i:t=dim.	!	!LO:TX:b:i:t=dim.	!	!LO:TX:b:i:t=dim.	!	!LO:TX:b:i:t=dim.	!	!
8D#L	.	8F#L)	.	(8B	.	(8aaL]	.	V65
8E	.	(8E	.	4e	.	8gg#	.	I
8AA	.	8C#	.	.	.	8aa	.	IV
[8BBJ)	.	8D#J)	.	8d#)	.	8ff#J)	.	V
=62	=62	=62	=62	=62	=62	=62	=62	=62
!LO:TX:b:i:t=r	!	!LO:TX:b:i:t=r	!	!LO:TX:b:i:t=r	!	!	!	!
(8BBL]	fz	(8E#XL	fz	(8g#L	fz	1r	.	V7
8AA	.	8A	.	8cc#)	.	.	.	.
8BB	.	8G#	.	8r	.	.	.	.
8C#J)	.	[8F#J)	.	[8aJ	.	.	.	.
!	!	!LO:TX:b:i:t=dim.	!	!LO:TX:b:i:t=dim.	!	!	!	!
4BB	.	(8F#L]	.	(8aL]	.	.	.	.
.	.	8E	.	8g#	.	.	.	.
*clefC4	*	*	*	*	*	*	*	*
!LO:TX:a:i:t=dim.	!	!	!	!	!	!	!	!
4d#	.	8BB	.	8a	.	.	.	.
.	.	[8AJ)	.	[8f#J)	.	.	.	.
=63	=63	=63	=63	=63	=63	=63	=63	=63
!	!	!	!	!	!	!LO:TX:b:i:t=dolce cresc.	!	!
(2e	p	(8AL]	p	(8f#L]	p	4r	p	I[I
.	.	8G#J)	.	8eJ)	.	.	.	.
.	.	[4g#	.	2r	.	(4bb	.	.
!LO:TX:a:i:t=cresc.	!	!LO:TX:b:i:t=cresc.	!	!	!	!	!	!
(2e)	.	8g#L]	.	.	.	2ddd#	.	viio7/iii
.	.	(8G#	.	.	.	.	.	.
!	!	!	!	!LO:TX:b:i:t=cresc.	!	!	!	!
.	.	8.B#X	.	(4a	.	.	.	.
.	.	16c#Jk)	.	.	.	.	.	.
=64	=64	=64	=64	=64	=64	=64	=64	=64
[1e)	.	(2A	.	4.b#X	.	2eee	.	IV(#2)
.	.	.	.	8cc#	.	.	.	.
.	.	4c#	.	4a)	.	[2ccc#)	.	IV
.	.	4a	.	(4cc#	.	.	.	.
=65	=65	=65	=65	=65	=65	=65	=65	=65
2.e]	.	4f##X	.	4a#X	.	(4ccc#]	.	I(6#4#2)
.	.	4g#X	.	4b	.	4bb	.	I
.	.	(4f##)	.	4cc#	.	4aa#X	.	viio7/iii]
4e	>]	4f##)	>]	4a#)	>]	4ccc#	>]	.
=66	=66	=66	=66	=66	=66	=66	=66	=66
2d#	p	((4f#	p	(4b	p	4bb	p	V6
.	.	2b	.	4ff#	.	4aa	.	V65
[2e	.	.	.	4ee	.	4gg#	.	I
.	.	4a	.	4ff#)	.	4aa)	.	I(42)
=67	=67	=67	=67	=67	=67	=67	=67	=67
4e]	.	4g#))	.	(4ee	.	2.bb	.	I
4r	.	4r	.	4dd#	.	.	.	.
2r	.	2r	.	4cc#	.	.	.	.
.	.	.	.	4dd#)	.	(4bb	.	V6
=68	=68	=68	=68	=68	=68	=68	=68	=68
1r	.	1r	.	2.ee	.	4aa	.	I(4)
.	.	.	.	.	.	4gg#	.	I
.	.	.	.	.	.	4ff#	.	.
.	.	.	.	(4ee	.	4gg#)	.	.
=69	=69	=69	=69	=69	=69	=69	=69	=69
1r	.	1r	.	4dd#	.	2.aa	.	IV6
.	.	.	.	4cc#	.	.	.	.
.	.	.	.	4b#X	.	.	.	.
.	.	.	.	4cc#)	.	(4aa	.	.
=70	=70	=70	=70	=70	=70	=70	=70	=70
1r	.	1r	.	2.dd#	.	4gg#	.	vii(4)
.	.	.	.	.	.	[4ff#)	.	vii
.	.	.	.	.	.	(8ff#L]	.	.
.	.	.	.	.	.	8eeJ	.	.
.	.	.	.	[4dd#	.	4ff#)	.	.
=71	=71	=71	=71	=71	=71	=71	=71	=71
1r	.	1r	.	(8dd#L]	.	2gg#	.	iii6
.	.	.	.	8cc#J	.	.	.	.
.	.	.	.	2b	.	.	.	.
.	.	.	.	.	.	(4cc#	.	.
.	.	.	.	[4a)	.	4dd#	.	V2
=72	=72	=72	=72	=72	=72	=72	=72	=72
2r	.	2r	.	8aL]	.	2ee)	.	ii7
.	.	.	.	8g#J	.	.	.	.
.	.	.	.	2f#	.	.	.	.
!LO:TX:b:i:t=dolce	!	!	!	!	!	!	!	!
4r	.	8r	.	.	.	(4a	.	ii2
.	.	(8e	.	.	.	.	.	.
4e	.	4d)	.	4g#	.	4b	.	V2/IV
=73	=73	=73	=73	=73	=73	=73	=73	=73
(4e	.	4c#	.	[1a	.	4cc#	.	IV\\
4d	.	2r	.	.	.	4b	.	.
4c#	.	.	.	.	.	4a	.	.
4d)	.	4A	.	.	.	4b	.	.
=74	=74	=74	=74	=74	=74	=74	=74	=74
2.e	.	(4A	.	4a]	.	4cc#)	.	IV
.	.	4G#	.	4r	.	4r	.	.
.	.	4F#	.	2r	.	2r	.	.
(4e	.	4G#)	.	.	.	.	.	.
=75	=75	=75	=75	=75	=75	=75	=75	=75
4d	.	2.A	.	1r	.	1r	.	.
4c#	.	.	.	.	.	.	.	.
4B	.	.	.	.	.	.	.	.
4c#)	.	(4A	.	.	.	.	.	.
=76	=76	=76	=76	=76	=76	=76	=76	=76
2.d	.	4G#	.	1r	.	1r	.	V65/IV
.	.	4F#	.	.	.	.	.	.
.	.	4E#X	.	.	.	.	.	.
(4d	.	4F#)	.	.	.	.	.	.
=77	=77	=77	=77	=77	=77	=77	=77	=77
4c#	.	2.G#	.	1r	.	1r	.	vi6
[4B)	.	.	.	.	.	.	.	.
(8BL]	.	.	.	.	.	.	.	.
8AJ	.	.	.	.	.	.	.	.
4B)	.	[4G#	.	.	.	.	.	.
=78	=78	=78	=78	=78	=78	=78	=78	=78
2c#	.	(8G#L]	.	1r	.	1r	.	V65/IV
.	.	8F#J	.	.	.	.	.	.
.	.	[4E)	.	.	.	.	.	.
(4F#	.	(8EL]	.	.	.	.	.	.
.	.	8eJ)	.	.	.	.	.	.
4G#)	.	[4d	.	.	.	.	.	.
=79	=79	=79	=79	=79	=79	=79	=79	=79
[1A	.	8dL]	.	2r	.	1r	.	IV
.	.	(8dJ	.	.	.	.	.	.
.	.	2c#	.	.	.	.	.	.
.	.	.	.	(4ee	.	.	.	.
.	.	4B#X)	.	4ff#	.	.	.	.
=80	=80	=80	=80	=80	=80	=80	=80	=80
8AL]	.	2B	.	2gg#)	.	1r	.	V2
(8AJ	.	.	.	.	.	.	.	.
2G#)	.	.	.	.	.	.	.	.
.	.	2A	.	4cc#	.	.	.	.
[4F#	.	.	.	4dd#	.	.	.	.
=81	=81	=81	=81	=81	=81	=81	=81	=81
8F#L]	.	[2G#	.	2ee	.	2r	.	I
(8F#J	.	.	.	.	.	.	.	.
2E)	.	.	.	.	.	.	.	.
!	!	!LO:TX:b:i:t=cresc.	!	!	!	!LO:TX:b:i:t=cresc.	!	!
.	.	8G#L]	.	2r	.	(4b	.	.
.	.	(8G#J	.	.	.	.	.	.
[4D#	.	4F##X)	.	.	.	4cc#	.	i.V7
=82	=82	=82	=82	=82	=82	=82	=82	=82
!LO:TX:b:i:t=cresc.	!	!	!	!	!	!	!	!
(8D#L]	.	4G	.	2r	.	2dd#)	.	i6
8C#J	.	.	.	.	.	.	.	.
4.BB)	.	(4D#	.	.	.	.	.	.
!	!	!	!	!LO:TX:b:i:t=cresc.	!	!	!	!
.	.	4D#)	.	4B	.	(4g#	.	.
*clefF4	*	*	*	*	*	*	*	*
(8GG#	.	.	.	.	.	.	.	.
4FF##X)	>]	(4D#	>]	[4c#	>]	[4a#X)	>]	V65
=83||	=83||	=83||	=83||	=83||	=83||	=83||	=83||	=83||
*k[f#c#g#d#a#]	*	*k[f#c#g#d#a#]	*	*k[f#c#g#d#a#]	*	*k[f#c#g#d#a#]	*	*
*g#:	*	*g#:	*	*g#:	*	*g#:	*	*
(4FF##X	p	4E	p	(4c#]	p	(4a#]	p	V7(4)
4AA#	.	2D#)	.	4F##X	.	4cc#	.	V43
4GG#	.	.	.	4G#	.	4b	.	i
4FF##	.	[4D#	.	4c#	.	4a#X	.	V65
=84	=84	=84	=84	=84	=84	=84	=84	=84
4GG#	.	(4D#]	.	4B	.	4b	.	i
4BB	.	4BB	.	4D#	.	4dd#	.	i6
4AA#	.	4C#	.	4F##X	.	4cc#	.	V43
4GG#)	.	4D#)	.	4G#)	.	4b)	.	i
=85	=85	=85	=85	=85	=85	=85	=85	=85
(4AA#	.	(4c#	.	(4f##X	.	[1dd#	.	V43
4C#	.	4A#	.	4a#	.	.	.	.
4BB	.	4B	.	4g#	.	.	.	.
4AA#	.	4c#	.	4f##	.	.	.	.
=86	=86	=86	=86	=86	=86	=86	=86	=86
4BB	.	4d#	.	4g#	.	2.dd#]	.	i6
4D#	.	4B	.	4b	.	.	.	.
4C#	.	4f##X	.	4a#	.	.	.	.
4BB)	.	4g#)	.	4b)	.	(4dd#	.	.
=87	=87	=87	=87	=87	=87	=87	=87	=87
!LO:TX:b:i:t=cresc.	!	!LO:TX:b:i:t=cresc.	!	!LO:TX:b:i:t=cresc.	!	!LO:TX:b:i:t=cresc.	!	!
1DD#	.	(4a#	.	(4cc#	.	4ff##X	.	V7
.	.	4f##X	.	4a#	.	4aa#	.	.
.	.	4g#	.	4b	.	4gg#	.	.
.	.	4a#	.	4cc#	.	4ff##	.	.
=88	=88	=88	=88	=88	=88	=88	=88	=88
(2GG#	.	4d#	.	4b	.	4gg#	.	i
.	.	4B	.	4d#	.	4bb	.	.
4AA#	.	4c#	.	4f##X	.	4aa#	.	V43
4BB)	.	[4d#)	.	[4g#)	.	[4gg#)	.	i6
=89	=89	=89	=89	=89	=89	=89	=89	=89
(2BB#X	.	(4d#]	.	(4g#]	.	(4gg#]	.	V6/iv
.	.	4F#	.	4a	.	4dd#	.	V65/iv
4C#	.	4E	.	4g#	.	4ee	.	iv
4D#	.	4F#	.	4A) 4a	.	4b#X	.	V43/iv
=90	=90	=90	=90	=90	=90	=90	=90	=90
4E	.	4G#	.	[2g#	.	4cc#	.	iv6
4C##X	.	4E#X	.	.	.	4a#	.	.Ger6
4D#	>	4G#	>	(8g#L]	>	4.b	>	V(64)
.	.	.	.	8BJ	.	.	.	.
4DD#)	]	4F##X)	]	4c#)	]	.	.	.
.	.	.	.	.	.	[8a#)	]	V7
=91	=91	=91	=91	=91	=91	=91	=91	=91
!	!LO:DY:a	!	!LO:DY:a	!	!LO:DY:a	!	!LO:DY:a	!
1r	p	1r	p	2r	p	8a#L]	p	.
.	.	.	.	.	.	(8cc#	.	.
.	.	.	.	.	.	8b	.	.
.	.	.	.	.	.	8a#J	.	.
.	.	.	.	8r	p	8g#L	.	i
.	.	.	.	(8eL	.	8a#J	.	.
.	.	.	.	8d#	.	[4b)	.	.
.	.	.	.	8c#J	.	.	.	.
=92	=92	=92	=92	=92	=92	=92	=92	=92
1r	.	2r	.	8BL	.	8bL]	.	i6
.	.	.	.	8c#J	.	(8b	.	.
.	.	.	.	4.d#)	.	8a#	.	.
.	.	.	.	.	.	8g#J	.	.
.	.	4r	p	.	.	8f##XL	.	V
.	.	.	.	(8d#L	.	8g#J	.	.
.	.	(4D#	<	8c#	.	[4a#)	.	V7
.	.	.	.	8BJ	.	.	.	.
=93	=93	=93	=93	=93	=93	=93	=93	=93
1r	.	2F##X	.	8A#L	.	8a#L]	.	V65
.	.	.	.	8B	.	(8ee	.	.
.	.	.	.	8c#	.	8dd#	.	.
.	.	.	.	8a#J)	.	8cc#J	.	.
.	.	2G#)	[[	4a#	.	8b#XL	.	iv.V
.	.	.	.	.	.	8cc#J	.	.
.	.	.	.	8b#XL	.	[4dd#)	.	.
.	.	.	.	(8G#J	.	.	.	.
=94	=94	=94	=94	=94	=94	=94	=94	=94
!	!	!	!	!LO:TX:b:i:t=cresc.	!	!	!	!
1r	.	2.E	sf >	2B#X	.	8dd#L]	.	III+
.	.	.	.	.	.	(8ff#	.	.
.	.	.	.	.	.	8ee	.	.
.	.	.	.	.	.	8dd#J	.	.
.	.	.	.	2c#)	.	8eeL	.	i6
.	.	.	.	.	.	8ff#J	.	.
.	.	(4D#	]]	.	.	[4gg#)	.	.
=95	=95	=95	=95	=95	=95	=95	=95	=95
1r	.	4C#	p	2.A	sf >	8gg#L]	.	VI6
.	.	.	.	.	.	(8gg#	.	.
.	.	4E	.	.	.	8ff#	.	VI64
.	.	.	.	.	.	8eeJ	.	.
.	.	4D#	.	.	.	8ff#L	.	iio
.	.	.	.	.	.	8aa	.	.
.	.	4C#	.	[4a	]]	8gg#	.	iv64
.	.	.	.	.	.	[8ff#J)	.	.
=96	=96	=96	=96	=96	=96	=96	=96	=96
1r	.	4BB#X	.	4a]	p	8ff#L]	.	viio65
.	.	.	.	.	.	(8ff#	.	.
.	.	4C#)	.	[4a	.	8ee	.	III6
.	.	.	.	.	.	8dd#J	.	.
.	.	[2D#	.	8aL]	.	8cc#L	.	V43
.	.	.	.	(8a	.	8cc	.	.
.	.	.	.	8g#	.	8cc#X	.	.
.	.	.	.	8f#J	.	8dd#J)	.	.
=97	=97	=97	=97	=97	=97	=97	=97	=97
1r	.	8D#L]	.	8eL	.	4g#	.	i(2)
.	.	(8D#	.	8f#J	.	.	.	.
.	.	8C#	.	4.g#)	.	4r	.	i
.	.	8BBJ	.	.	.	.	.	.
.	.	8AAL	.	.	.	2r	.	VI6
.	.	8BBJ	.	(8g#L	.	.	.	.
.	.	[4C#)	.	8f#	.	.	.	.
.	.	.	.	8eJ	.	.	.	.
=98	=98	=98	=98	=98	=98	=98	=98	=98
1r	.	8C#L]	.	8d#L	.	2r	.	V7
.	.	(8C#	.	8eJ	.	.	.	.
.	.	8BB#X	.	[4f#)	.	.	.	.
.	.	8GG#J	.	.	.	.	.	.
!	!	!LO:TX:b:i:t=cresc.	!	!LO:TX:b:i:t=cresc.	!	!LO:TX:b:i:t=cresc.	!	!
.	.	8C#)	.	(8f#L]	.	4r	.	i
.	.	(4c#	.	8eJ)	.	.	.	.
.	.	.	.	[4d#	.	(4g#	.	V6
.	.	8B#X)	.	.	.	.	.	.
=99	=99	=99	=99	=99	=99	=99	=99	=99
2r	.	(8f#L	.	(8d#L]	.	2b#X	.	V43
.	.	8a	.	8f#	.	.	.	.
.	.	8g#	.	8e	.	.	.	.
.	.	[8f#J)	.	[8d#J)	.	.	.	.
!LO:TX:b:i:t=cresc.	!	!	!	!	!	!	!	!
2CC#	.	8f#L]	.	8d#L]	.	2cc#)	.	i
.	.	(8G#	.	(8e	.	.	.	.
.	.	8F#	.	8d#	.	.	.	.
.	.	[8EJ)	.	[8c#J)	.	.	.	.
=100	=100	=100	=100	=100	=100	=100	=100	=100
1FF##X	.	8EL]	.	8c#L]	.	2.a#	sf	i.#viio7
.	.	(8E	.	(8c#	.	.	.	.
.	.	8D#	.	8d#	.	.	.	.
.	.	[8C#J)	.	[8eJ)	.	.	.	.
.	.	8C#L]	.	8eL]	.	.	.	.
.	.	(8C#	.	(8e	.	.	.	.
.	.	8D#	.	8d#	.	(4a#	p	.
.	.	[8EJ)	.	[8c#J)	.	.	.	.
=101	=101	=101	=101	=101	=101	=101	=101	=101
1GG#	.	8EL]	.	8c#L]	.	4g#	.	i
.	.	(8D#	.	(8B	.	.	.	.
.	.	8C#	.	8A#	.	4b	.	.
.	.	[8BBJ)	.	[8G#J)	.	.	.	.
.	.	8BBL]	.	8G#L]	.	4a#	.	.
.	.	(8BB	.	(8G#	.	.	.	.
.	.	8C#	.	8A#	.	4g#)	.	.
.	.	8D#J)	.	8BJ	.	.	.	.
=102	=102	=102	=102	=102	=102	=102	=102	=102
!	!	!	!	!	!LO:DY:a	!	!	!
[1EE	f	4C#	f	8A#L) 8c#	f f	(4f##X	.	#viio2
.	.	.	.	(8A#	.	.	.	.
.	.	4.C#	.	8B	.	4g#)	.	.
.	.	.	.	8c#J)	.	.	.	.
.	.	.	.	[2c#	sf	[2a#	sf	.
.	.	(8AA#L	.	.	.	.	.	.
.	.	8BB	.	.	.	.	.	.
.	.	8C#J)	.	.	.	.	.	.
=103	=103	=103	=103	=103	=103	=103	=103	=103
2EE]	>	(8C#L	>	(4c#]	>	(4a#]	>	.
.	.	8FF##X	.	.	.	.	.	.
.	.	8GG#	.	8BL	.	4cc#	.	.
.	.	8AA#J)	.	[8A#J)	.	.	.	.
2DD#	]]	(8GG#	.	(8A#L]	.	4b	.	V(64)
.	.	4C##X	.	8G#J	.	.	.	.
.	.	.	.	[4F##X)	]]	[4a#)	]]	V7
.	.	8D#)	]]	.	.	.	.	.
=104	=104	=104	=104	=104	=104	=104	=104	=104
2CC#	.	4.E	.	8F##L]	.	(4a#]	.	#viio43
.	.	.	.	(8f##XJ	.	.	.	.
.	.	.	.	[4e)	.	4ee	.	.
.	.	(8E	.	.	.	.	.	.
!LO:TX:b:i:t=cresc.	!	!LO:TX:b:i:t=cresc.	!	!LO:TX:b:i:t=cresc.	!	!LO:TX:b:i:t=cresc.	!	!
2EE	.	4.G#)	.	8eL]	.	4dd#	.	iv6(7)
.	.	.	.	(8B#XJ	.	.	.	.
.	.	.	.	4c#)	.	[4cc#)	.	iv6
.	.	(8A	.	.	.	.	.	.
=105	=105	=105	=105	=105	=105	=105	=105	=105
2DD#	.	4.F#)	.	8r	.	(4cc#]	.	V43(7)/iv
.	.	.	.	(8f#	.	.	.	.
.	.	.	.	4.B#X)	.	4ff#	.	V43/iv
.	.	(8GG#	.	.	.	.	.	.
2CC#	.	4G#	.	.	.	4ee	.	iv
.	.	.	.	(8c#	.	.	.	.
.	.	8A#XL	.	[4f##X)	.	[4dd#)	.	V2
.	.	[8d#J)	.	.	.	.	.	.
=106	=106	=106	=106	=106	=106	=106	=106	=106
2BBB	.	4.d#]	.	8f##L]	.	(4dd#]	.	i6
.	.	.	.	(8g#J	.	.	.	.
.	.	.	.	4.G#)	.	4gg#	.	.
.	.	(8d#	.	.	.	.	.	.
2CC#	.	4.GG#)	.	.	.	4ff#	.	iv(4)
.	.	.	.	(8G#	.	.	.	.
.	.	.	.	4g#)	.	4ee)	.	iv
.	.	(8c#	.	.	.	.	.	.
=107	=107	=107	=107	=107	=107	=107	=107	=107
!LO:TX:b:i:t=r	!	!LO:TX:b:i:t=r	!	!LO:TX:b:i:t=r	!	!LO:TX:b:i:t=r	!	!
2DD	fz	4.B)	fz	8r	fz	(2.gg#	fz >	.bII6
.	.	.	.	(8e	.	.	.	.
.	.	.	.	[4b)	.	.	.	.
.	.	(8E	.	.	.	.	.	.
[2CC#	>]	4e)	>	(8bL]	>	.	.	.
.	.	.	.	8a)	.	.	.	.
.	.	(4C#	]]	(8a	.	4aa)	]]	.
.	.	.	.	8d#J)	]]	.	.	.
=108	=108	=108	=108	=108	=108	=108	=108	=108
!	!	!LO:TX:b:i:t=cresc.	!	!	!	!	!	!
2CC#]	p	2.F##X	.	4.a#X	p	8r	p	V2
.	.	.	.	.	.	(8dd#	.	.
.	.	.	.	.	.	4.d#)	.	i6
.	.	.	.	(8A#	.	.	.	.
(2BBB	.	.	.	(4D#)	.	.	.	.
.	.	.	.	.	.	(8dd#	.	.
.	.	4G#)	.	8E#XL)	.	4cc#)	.	V2/vii
.	.	.	.	[8e#XJ	.	.	.	.
=109	=109	=109	=109	=109	=109	=109	=109	=109
2BBB)	.	4.C#	.	8e#L]	.	(2.ee#X	sf >	V43
.	.	.	.	(8cc#J	.	.	.	.
.	.	.	.	[4c#)	.	.	.	.
.	.	(8G#	.	.	.	.	.	.
[2AAA#	.	4.C#)	.	8c#L]	.	.	.	.
.	.	.	.	(8cc#	.	.	.	.
.	.	.	.	8d#)	.	[4ff##X)	]]	.
.	.	(8A#	.	(8D#J	.	.	.	.
=110	=110	=110	=110	=110	=110	=110	=110	=110
!	!	!	!	!LO:TX:b:i:t=cresc.	!	!	!	!
2AAA#]	.	4.D#)	.	2F##X	.	8ff##L]	p	V43
.	.	.	.	.	.	(8f##XJ	.	.
.	.	.	.	.	.	4.cc#)	.	i(4)
.	.	(8d#	.	.	.	.	.	.
4GGG#	.	4.D#)	.	2G#)	.	.	.	.
.	.	.	.	.	.	(8cc#L	.	.
(4GGG#	.	.	.	.	.	8b#X	.	V/iv
.	.	(8d#	.	.	.	[8g#J)	.	.
=111	=111	=111	=111	=111	=111	=111	=111	=111
!LO:TX:b:i:t=cresc.	!	!LO:TX:b:i:t=cresc.	!LO:DY:a	!LO:TX:b:i:t=cresc.	!	!	!	!
2BBB#X	.	4.GG#)	p p	(2D#	.	8g#L]	.	V6/iv
.	.	.	.	.	.	(8gg#J	.	.
.	.	.	.	.	.	4.g#	.	iv
.	.	(8G#	.	.	.	.	.	.
2CC#)	.	4.GG#)	.	[2E)	.	.	.	.
!	!	!	!	!	!	!LO:TX:b:i:t=cresc.	!	!
.	.	.	.	.	.	8aa	.	.
.	.	.	.	.	.	4gg#)	.	.
.	.	(8c#	.	.	.	.	.	.
=112	=112	=112	=112	=112	=112	=112	=112	=112
(2AAA	rfz >	4.AA)	<	8EL]	<	(2bb#X	<	.bII(#2)
.	.	.	.	(8eJ	.	.	.	.
.	.	.	.	4.E)	.	.	.	.
.	.	(8e	.	.	.	.	.	.
4GGG#	.	4.C#) 4.E	.	.	.	2ccc#)	[[	#viio7
.	.	.	.	(8ff#	.	.	.	.
[4FFF##X)	]]	.	.	[4e) [4ee	[[	.	.	.
.	.	(8c#	[[	.	.	.	.	.
=113	=113	=113	=113	=113	=113	=113	=113	=113
1FFF##]	sf > ]]	4C#) 4E	sf	4e] 4ee]	sf	1aa	sf > ]]	.Ger6
.	.	(4C#	>	(4e	>	.	.	.
.	.	4D#	.	4d#	.	.	.	.
.	.	4E	]]	4c#	]]	.	.	.
=114	=114	=114	=114	=114	=114	=114	=114	=114
2.GGG#	p	4D#	p	4B#X	p	2.gg#	p	I
.	.	4C#	.	4c#	.	.	.	.
.	.	4BB#X)	sf	4d#)	sf	.	.	.
[4FFF##X	sf	[4C#	.	[4e [4ee	.	[4aa	sf	.Ger6
=115	=115	=115	=115	=115	=115	=115	=115	=115
1FFF##]	>]	4C#]	.	4e] 4ee]	.	1aa]	>]	.
.	.	(4C#	>	(4e	>	.	.	.
.	.	4D#	.	4d#	.	.	.	.
.	.	4E	]]	4c#	]]	.	.	.
=116	=116	=116	=116	=116	=116	=116	=116	=116
2.GGG#	p	4D#	p	4B#X	p	2.gg#	p	I[I
.	.	4C#	.	4c#	.	.	.	.
.	.	4BB#X)	.	4d#)	.	.	.	.
!	!	!	!LO:DY:a	!	!	!	!	!
[4GGG#	sf	[4C#	sf sf	[4F##X [4A#	.	[4ee	sf	#viio43
=117	=117	=117	=117	=117	=117	=117	=117	=117
2rBB (1GGG#]	.	4C#]	.	4F##] 4A#]	.	4ee]	.	.
.	.	(4C#	>	(4F##X 4A#	>	(4ee	>	.
((4DD#	>	4D#	.	4G# 4B#X	.	4dd#	.	I
4EE	.	4E	]]	4F## 4A#	]]	4cc#	]]	#viio2
=118	=118	=118	=118	=118	=118	=118	=118	=118
!	!	!	!LO:DY:a	!	!	!	!	!
4DD# (2GGG#)	] p	4D#	p p	4G# 4B#X	.	4b#X	p	I
4EE))	.	4C#	.	4F##X) 4A#	.	4cc#)	.	#viio2
[2DD# (2GGG#)	.	4BB#X)	.	[2B# [2g#	.	[2dd#	.	I
.	.	[4GG# [4D#	.	.	.	.	.	.
=119	=119	=119	=119	=119	=119	=119	=119	=119
!LO:TX:b:i:t=cresc.	!	!LO:TX:b:i:t=cresc.	!	!LO:TX:b:i:t=cresc.	!	!LO:TX:b:i:t=cresc.	!	!
(2.DD#] (2.GGG#)	.	2.GG#_ 2.D#_	.	2.B#_ 2.g#_	.	2.dd#_	.	.
!LO:TX:b:i:t=dim.	!	!LO:TX:b:i:t=dim.	!	!LO:TX:b:i:t=dim.	!	!LO:TX:b:i:t=dim.	!	!
(4DD#) 4GGG#)	.	((4GG#] 4D#]	.	((4B#] 4g#]	.	(4dd#]	.	.
=120	=120	=120	=120	=120	=120	=120	=120	=120
!LO:TX:b:i:t=piu	!	!LO:TX:a:i:t=piu	!	!	!	!LO:TX:b:i:t=piu	!	!
4GGG#) 4DD#	p	4GG#)) 4D#	p	4B#X)) 4g#	p	(4dd#)	p	.
4GGG#	.	4GG# 4D#	.	4B# 4g#	.	(4dd#)	.	.
[2GG#	p pp	4GG# 4D#	p	4B# 4g#	p	4dd#)	p	.
!	!	!	!	!	!LO:DY:a	!	!	!
.	.	4GG#	pp	[4G#	pp pp	(4G#	.	.
=121	=121	=121	=121	=121	=121	=121	=121	=121
2.GG#;]	.	2.G#;	.	2.G#;]	.	2.g#;)	.	I\\
=||	=||	=||	=||	=||	=||	=||	=||	=||
*-	*-	*-	*-	*-	*-	*-	*-	*-
!!!system-decoration: [(s1,s2,s3,s4)]
